static/cards/FrenchDeck/cyberwave/card_diamonds_09.svg

<svg xmlns="http://www.w3.org/2000/svg" width="822" height="1122" fill="none" viewBox="0 0 822 1122"><rect width="822" height="1122" fill="#1a0033" rx="20"/><path fill="#b366ff" d="M118.254 160.92q-7.169 0-13.056-1.536-5.76-1.536-9.728-4.224-.767-.512-.896-.896-.128-.384.256-1.152l1.664-2.816q.384-.768.896-.768.256 0 .896.384 8.064 5.12 20.096 5.12 12.416 0 19.968-8.96 7.68-9.088 8.704-25.472-9.984 12.16-26.752 12.16-9.473 0-16.896-3.456-7.296-3.584-11.52-10.112-4.096-6.656-4.096-15.872 0-16.384 9.344-24.832t25.472-8.448q14.592 0 23.04 9.472 8.576 9.344 8.576 29.568 0 28.416-10.496 40.192-10.496 11.648-25.472 11.648m3.2-34.176q6.016 0 12.032-2.56 6.016-2.688 9.856-7.68 3.968-5.12 3.968-12.288 0-14.08-6.528-21.12-6.528-7.168-18.176-7.168-28.16 0-28.16 27.392 0 11.52 7.04 17.536 7.04 5.888 19.968 5.888M112.679 208.481c3.959-5.938 12.683-5.938 16.642 0l21.981 32.972a10 10 0 0 1 0 11.094l-21.981 32.972c-3.959 5.938-12.683 5.938-16.642 0l-21.981-32.972a10 10 0 0 1 0-11.094zM695.746 957.08q7.168 0 13.056 1.536 5.76 1.536 9.728 4.224.768.512.896.896t-.256 1.152l-1.664 2.816q-.384.768-.896.768-.256 0-.896-.384-8.064-5.12-20.096-5.12-12.415 0-19.968 8.96-7.68 9.088-8.704 25.472 9.984-12.16 26.752-12.16 9.473 0 16.896 3.456 7.296 3.584 11.52 10.112 4.096 6.663 4.096 15.872c0 10.92-3.115 19.2-9.344 24.83s-14.72 8.45-25.472 8.45c-9.728 0-17.408-3.16-23.04-9.47-5.717-6.23-8.576-16.09-8.576-29.57q0-28.416 10.496-40.192 10.496-11.648 25.472-11.648m-3.2 34.176q-6.016 0-12.032 2.56-6.016 2.687-9.856 7.684c-2.645 3.41-3.968 7.51-3.968 12.28q0 14.085 6.528 21.12 6.528 7.17 18.176 7.17 28.16 0 28.16-27.39c0-7.68-2.347-13.53-7.04-17.536q-7.04-5.888-19.968-5.888M701.321 909.519c-3.959 5.938-12.683 5.938-16.642 0l-21.981-32.972a10 10 0 0 1 0-11.094l21.981-32.972c3.959-5.938 12.683-5.938 16.642 0l21.981 32.972a10 10 0 0 1 0 11.094z"/><path stroke="#b366ff" stroke-width="8" d="M406.008 524.699c2.375-3.562 7.609-3.562 9.984 0l21.982 32.973a6 6 0 0 1 0 6.656l-21.982 32.973c-2.375 3.562-7.609 3.562-9.984 0l-21.982-32.973a6 6 0 0 1 0-6.656zM238.008 686.699c2.375-3.562 7.609-3.562 9.984 0l21.982 32.973a6 6 0 0 1 0 6.656l-21.982 32.973c-2.375 3.562-7.609 3.562-9.984 0l-21.982-32.973a6 6 0 0 1 0-6.656zM402.008 686.699c2.375-3.562 7.609-3.562 9.984 0l21.982 32.973a6 6 0 0 1 0 6.656l-21.982 32.973c-2.375 3.562-7.609 3.562-9.984 0l-21.982-32.973a6 6 0 0 1 0-6.656zM574.008 686.699c2.375-3.562 7.609-3.562 9.984 0l21.982 32.973a6 6 0 0 1 0 6.656l-21.982 32.973c-2.375 3.562-7.609 3.562-9.984 0l-21.982-32.973a6 6 0 0 1 0-6.656zM574.008 524.699c2.375-3.562 7.609-3.562 9.984 0l21.982 32.973a6 6 0 0 1 0 6.656l-21.982 32.973c-2.375 3.562-7.609 3.562-9.984 0l-21.982-32.973a6 6 0 0 1 0-6.656zM238.008 524.699c2.375-3.562 7.609-3.562 9.984 0l21.982 32.973a6 6 0 0 1 0 6.656l-21.982 32.973c-2.375 3.562-7.609 3.562-9.984 0l-21.982-32.973a6 6 0 0 1 0-6.656zM574.008 362.699c2.375-3.562 7.609-3.562 9.984 0l21.982 32.973a6 6 0 0 1 0 6.656l-21.982 32.973c-2.375 3.562-7.609 3.562-9.984 0l-21.982-32.973a6 6 0 0 1 0-6.656zM238.008 362.699c2.375-3.562 7.609-3.562 9.984 0l21.982 32.973a6 6 0 0 1 0 6.656l-21.982 32.973c-2.375 3.562-7.609 3.562-9.984 0l-21.982-32.973a6 6 0 0 1 0-6.656zM406.008 362.699c2.375-3.562 7.609-3.562 9.984 0l21.982 32.973a6 6 0 0 1 0 6.656l-21.982 32.973c-2.375 3.562-7.609 3.562-9.984 0l-21.982-32.973a6 6 0 0 1 0-6.656z"/></svg>

<svg width="822" height="1122" viewBox="0 0 822 1122" fill="none" xmlns="http://www.w3.org/2000/svg">
<rect width="822" height="1122" rx="20" fill="#1A0033"/>
<path d="M118.254 160.92C113.475 160.92 109.123 160.408 105.198 159.384C101.358 158.36 98.1153 156.952 95.47 155.16C94.958 154.819 94.6593 154.52 94.574 154.264C94.4887 154.008 94.574 153.624 94.83 153.112L96.494 150.296C96.75 149.784 97.0487 149.528 97.39 149.528C97.5607 149.528 97.8593 149.656 98.286 149.912C103.662 153.325 110.361 155.032 118.382 155.032C126.659 155.032 133.315 152.045 138.35 146.072C143.47 140.013 146.371 131.523 147.054 120.6C140.398 128.707 131.481 132.76 120.302 132.76C113.987 132.76 108.355 131.608 103.406 129.304C98.542 126.915 94.702 123.544 91.886 119.192C89.1553 114.755 87.79 109.464 87.79 103.32C87.79 92.3973 90.9047 84.12 97.134 78.488C103.363 72.856 111.854 70.04 122.606 70.04C132.334 70.04 140.014 73.1973 145.646 79.512C151.363 85.7413 154.222 95.5973 154.222 109.08C154.222 128.024 150.723 141.421 143.726 149.272C136.729 157.037 128.238 160.92 118.254 160.92ZM121.454 126.744C125.465 126.744 129.475 125.891 133.486 124.184C137.497 122.392 140.782 119.832 143.342 116.504C145.987 113.091 147.31 108.995 147.31 104.216C147.31 94.8293 145.134 87.7893 140.782 83.096C136.43 78.3173 130.371 75.928 122.606 75.928C103.833 75.928 94.446 85.0587 94.446 103.32C94.446 111 96.7927 116.845 101.486 120.856C106.179 124.781 112.835 126.744 121.454 126.744Z" fill="#B366FF"/>
<path d="M112.679 208.481C116.638 202.543 125.362 202.543 129.321 208.481L151.302 241.453C153.541 244.812 153.541 249.188 151.302 252.547L129.321 285.519C125.362 291.457 116.638 291.457 112.679 285.519L90.698 252.547C88.4587 249.188 88.4587 244.812 90.698 241.453L112.679 208.481Z" fill="#B366FF"/>
<path d="M695.746 957.08C700.525 957.08 704.877 957.592 708.802 958.616C712.642 959.64 715.885 961.048 718.53 962.84C719.042 963.181 719.341 963.48 719.426 963.736C719.511 963.992 719.426 964.376 719.17 964.888L717.506 967.704C717.25 968.216 716.951 968.472 716.61 968.472C716.439 968.472 716.141 968.344 715.714 968.088C710.338 964.675 703.639 962.968 695.618 962.968C687.341 962.968 680.685 965.955 675.65 971.928C670.53 977.987 667.629 986.477 666.946 997.4C673.602 989.293 682.519 985.24 693.698 985.24C700.013 985.24 705.645 986.392 710.594 988.696C715.458 991.085 719.298 994.456 722.114 998.808C724.845 1003.25 726.21 1008.54 726.21 1014.68C726.21 1025.6 723.095 1033.88 716.866 1039.51C710.637 1045.14 702.146 1047.96 691.394 1047.96C681.666 1047.96 673.986 1044.8 668.354 1038.49C662.637 1032.26 659.778 1022.4 659.778 1008.92C659.778 989.976 663.277 976.579 670.274 968.728C677.271 960.963 685.762 957.08 695.746 957.08ZM692.546 991.256C688.535 991.256 684.525 992.109 680.514 993.816C676.503 995.608 673.218 998.168 670.658 1001.5C668.013 1004.91 666.69 1009.01 666.69 1013.78C666.69 1023.17 668.866 1030.21 673.218 1034.9C677.57 1039.68 683.629 1042.07 691.394 1042.07C710.167 1042.07 719.554 1032.94 719.554 1014.68C719.554 1007 717.207 1001.15 712.514 997.144C707.821 993.219 701.165 991.256 692.546 991.256Z" fill="#B366FF"/>
<path d="M701.321 909.519C697.362 915.457 688.638 915.457 684.679 909.519L662.698 876.547C660.459 873.188 660.459 868.812 662.698 865.453L684.679 832.481C688.638 826.543 697.362 826.543 701.321 832.481L723.302 865.453C725.541 868.812 725.541 873.188 723.302 876.547L701.321 909.519Z" fill="#B366FF"/>
<path d="M406.008 524.699C408.383 521.137 413.617 521.137 415.992 524.699L437.974 557.672C439.317 559.687 439.317 562.313 437.974 564.328L415.992 597.301C413.617 600.863 408.383 600.863 406.008 597.301L384.026 564.328C382.683 562.313 382.683 559.687 384.026 557.672L406.008 524.699Z" stroke="#B366FF" stroke-width="8"/>
<path d="M238.008 686.699C240.383 683.137 245.617 683.137 247.992 686.699L269.974 719.672C271.317 721.687 271.317 724.313 269.974 726.328L247.992 759.301C245.617 762.863 240.383 762.863 238.008 759.301L216.026 726.328C214.683 724.313 214.683 721.687 216.026 719.672L238.008 686.699Z" stroke="#B366FF" stroke-width="8"/>
<path d="M402.008 686.699C404.383 683.137 409.617 683.137 411.992 686.699L433.974 719.672C435.317 721.687 435.317 724.313 433.974 726.328L411.992 759.301C409.617 762.863 404.383 762.863 402.008 759.301L380.026 726.328C378.683 724.313 378.683 721.687 380.026 719.672L402.008 686.699Z" stroke="#B366FF" stroke-width="8"/>
<path d="M574.008 686.699C576.383 683.137 581.617 683.137 583.992 686.699L605.974 719.672C607.317 721.687 607.317 724.313 605.974 726.328L583.992 759.301C581.617 762.863 576.383 762.863 574.008 759.301L552.026 726.328C550.683 724.313 550.683 721.687 552.026 719.672L574.008 686.699Z" stroke="#B366FF" stroke-width="8"/>
<path d="M574.008 524.699C576.383 521.137 581.617 521.137 583.992 524.699L605.974 557.672C607.317 559.687 607.317 562.313 605.974 564.328L583.992 597.301C581.617 600.863 576.383 600.863 574.008 597.301L552.026 564.328C550.683 562.313 550.683 559.687 552.026 557.672L574.008 524.699Z" stroke="#B366FF" stroke-width="8"/>
<path d="M238.008 524.699C240.383 521.137 245.617 521.137 247.992 524.699L269.974 557.672C271.317 559.687 271.317 562.313 269.974 564.328L247.992 597.301C245.617 600.863 240.383 600.863 238.008 597.301L216.026 564.328C214.683 562.313 214.683 559.687 216.026 557.672L238.008 524.699Z" stroke="#B366FF" stroke-width="8"/>
<path d="M574.008 362.699C576.383 359.137 581.617 359.137 583.992 362.699L605.974 395.672C607.317 397.687 607.317 400.313 605.974 402.328L583.992 435.301C581.617 438.863 576.383 438.863 574.008 435.301L552.026 402.328C550.683 400.313 550.683 397.687 552.026 395.672L574.008 362.699Z" stroke="#B366FF" stroke-width="8"/>
<path d="M238.008 362.699C240.383 359.137 245.617 359.137 247.992 362.699L269.974 395.672C271.317 397.687 271.317 400.313 269.974 402.328L247.992 435.301C245.617 438.863 240.383 438.863 238.008 435.301L216.026 402.328C214.683 400.313 214.683 397.687 216.026 395.672L238.008 362.699Z" stroke="#B366FF" stroke-width="8"/>
<path d="M406.008 362.699C408.383 359.137 413.617 359.137 415.992 362.699L437.974 395.672C439.317 397.687 439.317 400.313 437.974 402.328L415.992 435.301C413.617 438.863 408.383 438.863 406.008 435.301L384.026 402.328C382.683 400.313 382.683 397.687 384.026 395.672L406.008 362.699Z" stroke="#B366FF" stroke-width="8"/>
</svg>
